assets/svg/1F4D1.svg

<svg xmlns="http://www.w3.org/2000/svg" viewBox="0 0 64 64" enable-background="new 0 0 64 64"><path fill="#d0d2d3" d="m39.972 48.14c0 2.097-1.936 3.788-4.334 3.788h-27.626c-2.395 0-4.334-1.691-4.334-3.788v-34.13c0-2.092 1.938-3.789 4.334-3.789h27.628c2.396 0 4.334 1.696 4.334 3.789v34.13h-.002"/><path fill="#fff" d="m37.742 45.22c0 1.834-1.701 3.322-3.8 3.322h-24.23c-2.1 0-3.801-1.488-3.801-3.322v-29.936c0-1.833 1.702-3.318 3.801-3.318h24.23c2.099 0 3.8 1.486 3.8 3.318v29.936"/><g fill="#34484c"><path d="m10.702 20.01c7.186 0 14.375 0 21.56 0 1.446 0 1.446-1.963 0-1.963-7.185 0-14.375 0-21.56 0-1.451 0-1.451 1.963 0 1.963l0 0"/><path d="m10.702 23.995c7.186 0 14.375 0 21.56 0 1.446 0 1.446-1.959 0-1.959-7.185 0-14.375 0-21.56 0-1.451 0-1.451 1.959 0 1.959l0 0"/><path d="m10.702 28.07c7.186 0 14.375 0 21.56 0 1.446 0 1.446-1.961 0-1.961-7.185 0-14.375 0-21.56 0-1.451 0-1.451 1.961 0 1.961l0 0"/><path d="m10.702 32.06c7.186 0 14.375 0 21.56 0 1.446 0 1.446-1.963 0-1.963-7.185 0-14.375 0-21.56 0-1.451-.002-1.451 1.963 0 1.963l0 0"/><path d="m10.702 46.46c3.31 0 6.615 0 9.921 0 1.446 0 1.446-1.963 0-1.963-3.306 0-6.611 0-9.921 0-1.451 0-1.451 1.963 0 1.963l0 0"/></g><path fill="#20afc3" d="m21.482 11.966c0 3.078-2.556 5.575-5.702 5.575h-9.1c-3.149 0-5.702-2.497-5.702-5.575l0 0c0-3.079 2.552-5.573 5.702-5.573h9.09c3.147-.0001 5.703 2.494 5.703 5.573l0 0"/><path fill="#d0d2d3" d="m51.5 39.1c0 2.093-1.94 3.789-4.332 3.789h-27.633c-2.392 0-4.332-1.696-4.332-3.789v-34.13c0-2.09 1.94-3.786 4.332-3.786h27.633c2.392 0 4.332 1.696 4.332 3.786v34.13"/><path fill="#fff" d="m49.27 36.19c0 1.834-1.701 3.321-3.8 3.321h-24.23c-2.098 0-3.798-1.487-3.798-3.321v-29.939c0-1.833 1.7-3.316 3.798-3.316h24.23c2.099 0 3.8 1.485 3.8 3.316v29.939"/><g fill="#34484c"><path d="m22.22 10.972c7.186 0 14.374 0 21.556 0 1.452 0 1.452-1.961 0-1.961-7.183 0-14.37 0-21.556 0-1.447-.0001-1.447 1.961 0 1.961l0 0"/><path d="m22.22 14.959c7.186 0 14.374 0 21.556 0 1.452 0 1.452-1.963 0-1.963-7.183 0-14.37 0-21.556 0-1.447 0-1.447 1.963 0 1.963l0 0"/><path d="m22.22 19.03c7.186 0 14.374 0 21.556 0 1.452 0 1.452-1.963 0-1.963-7.183 0-14.37 0-21.556 0-1.447 0-1.447 1.963 0 1.963l0 0"/><path d="m22.22 23.02c7.186 0 14.374 0 21.556 0 1.452 0 1.452-1.961 0-1.961-7.183 0-14.37 0-21.556 0-1.447 0-1.447 1.961 0 1.961l0 0"/><path d="m22.22 37.424c3.308 0 6.613 0 9.922 0 1.446 0 1.446-1.963 0-1.963-3.31 0-6.615 0-9.922 0-1.447 0-1.447 1.963 0 1.963l0 0"/></g><path fill="#20afc3" d="m33.35 33.03c0 3.079-2.555 5.575-5.701 5.575h-9.09c-3.152 0-5.703-2.496-5.703-5.575l0 0c0-3.078 2.55-5.572 5.703-5.572h9.09c3.147 0 5.701 2.494 5.701 5.572l0 0"/><path fill="#d0d2d3" d="m63.02 59.13c0 2.095-1.939 3.786-4.332 3.786h-27.631c-2.395 0-4.336-1.691-4.336-3.786v-34.13c0-2.092 1.941-3.789 4.336-3.789h27.632c2.394 0 4.331 1.695 4.331 3.789v34.13h0"/><path fill="#fff" d="m60.79 56.22c0 1.835-1.705 3.32-3.803 3.32h-24.23c-2.098 0-3.802-1.485-3.802-3.32v-29.935c0-1.835 1.705-3.319 3.802-3.319h24.23c2.098 0 3.803 1.484 3.803 3.319v29.935"/><g fill="#34484c"><path d="m33.746 31.01c7.188 0 14.374 0 21.562 0 1.447 0 1.447-1.965 0-1.965-7.188 0-14.373 0-21.562 0-1.447 0-1.447 1.965 0 1.965l0 0"/><path d="m33.746 34.993c7.188 0 14.374 0 21.562 0 1.447 0 1.447-1.961 0-1.961-7.188 0-14.373 0-21.562 0-1.447 0-1.447 1.961 0 1.961l0 0"/><path d="m33.746 39.07c7.188 0 14.374 0 21.562 0 1.447 0 1.447-1.961 0-1.961-7.188 0-14.373 0-21.562 0-1.447 0-1.447 1.961 0 1.961l0 0"/><path d="m33.746 43.05c7.188 0 14.374 0 21.562 0 1.447 0 1.447-1.962 0-1.962-7.188 0-14.373 0-21.562 0-1.447-.0001-1.447 1.962 0 1.962l0 0"/><path d="m33.746 57.46c3.308 0 6.615 0 9.925 0 1.446 0 1.446-1.961 0-1.961-3.31 0-6.617 0-9.925 0-1.447 0-1.447 1.961 0 1.961l0 0"/></g></svg>

<?xml version="1.0" encoding="utf-8"?>
<!-- Generator: Adobe Illustrator 16.0.0, SVG Export Plug-In . SVG Version: 6.00 Build 0)  -->
<!DOCTYPE svg PUBLIC "-//W3C//DTD SVG 1.1//EN" "http://www.w3.org/Graphics/SVG/1.1/DTD/svg11.dtd">
<svg version="1.1" id="Layer_1" xmlns="http://www.w3.org/2000/svg" xmlns:xlink="http://www.w3.org/1999/xlink" x="0px" y="0px"
	 width="64px" height="64px" viewBox="0 0 64 64" enable-background="new 0 0 64 64" xml:space="preserve">
<g>
	<g>
		<path fill="#D0D2D3" d="M39.972,48.138c0,2.097-1.936,3.788-4.334,3.788H8.012c-2.395,0-4.334-1.691-4.334-3.788V14.009
			c0-2.092,1.938-3.789,4.334-3.789H35.64c2.396,0,4.334,1.696,4.334,3.789v34.129H39.972z"/>
		<path fill="#FFFFFF" d="M37.742,45.223c0,1.834-1.701,3.322-3.8,3.322H9.71c-2.1,0-3.801-1.488-3.801-3.322V15.287
			c0-1.833,1.702-3.318,3.801-3.318h24.232c2.099,0,3.8,1.486,3.8,3.318V45.223z"/>
		<g>
			<path fill="#34484C" d="M10.702,20.012c7.186,0,14.375,0,21.56,0c1.446,0,1.446-1.963,0-1.963c-7.185,0-14.375,0-21.56,0
				C9.251,18.049,9.251,20.012,10.702,20.012L10.702,20.012z"/>
		</g>
		<g>
			<path fill="#34484C" d="M10.702,23.995c7.186,0,14.375,0,21.56,0c1.446,0,1.446-1.959,0-1.959c-7.185,0-14.375,0-21.56,0
				C9.251,22.036,9.251,23.995,10.702,23.995L10.702,23.995z"/>
		</g>
		<g>
			<path fill="#34484C" d="M10.702,28.069c7.186,0,14.375,0,21.56,0c1.446,0,1.446-1.961,0-1.961c-7.185,0-14.375,0-21.56,0
				C9.251,26.108,9.251,28.069,10.702,28.069L10.702,28.069z"/>
		</g>
		<g>
			<path fill="#34484C" d="M10.702,32.056c7.186,0,14.375,0,21.56,0c1.446,0,1.446-1.963,0-1.963c-7.185,0-14.375,0-21.56,0
				C9.251,30.091,9.251,32.056,10.702,32.056L10.702,32.056z"/>
		</g>
		<g>
			<path fill="#34484C" d="M10.702,46.462c3.31,0,6.615,0,9.921,0c1.446,0,1.446-1.963,0-1.963c-3.306,0-6.611,0-9.921,0
				C9.251,44.499,9.251,46.462,10.702,46.462L10.702,46.462z"/>
		</g>
	</g>
	<path fill="#20AFC3" d="M21.482,11.966c0,3.078-2.556,5.575-5.702,5.575H6.684c-3.149,0-5.702-2.497-5.702-5.575l0,0
		c0-3.079,2.552-5.573,5.702-5.573h9.095C18.926,6.392,21.482,8.887,21.482,11.966L21.482,11.966z"/>
	<g>
		<path fill="#D0D2D3" d="M51.497,39.1c0,2.093-1.94,3.789-4.332,3.789H19.532c-2.392,0-4.332-1.696-4.332-3.789V4.969
			c0-2.09,1.94-3.786,4.332-3.786h27.633c2.392,0,4.332,1.696,4.332,3.786V39.1z"/>
		<path fill="#FFFFFF" d="M49.265,36.186c0,1.834-1.701,3.321-3.8,3.321H21.232c-2.098,0-3.798-1.487-3.798-3.321V6.247
			c0-1.833,1.7-3.316,3.798-3.316h24.233c2.099,0,3.8,1.485,3.8,3.316V36.186z"/>
		<g>
			<path fill="#34484C" d="M22.224,10.972c7.186,0,14.374,0,21.556,0c1.452,0,1.452-1.961,0-1.961c-7.183,0-14.37,0-21.556,0
				C20.777,9.01,20.777,10.972,22.224,10.972L22.224,10.972z"/>
		</g>
		<g>
			<path fill="#34484C" d="M22.224,14.959c7.186,0,14.374,0,21.556,0c1.452,0,1.452-1.963,0-1.963c-7.183,0-14.37,0-21.556,0
				C20.777,12.996,20.777,14.959,22.224,14.959L22.224,14.959z"/>
		</g>
		<g>
			<path fill="#34484C" d="M22.224,19.032c7.186,0,14.374,0,21.556,0c1.452,0,1.452-1.963,0-1.963c-7.183,0-14.37,0-21.556,0
				C20.777,17.069,20.777,19.032,22.224,19.032L22.224,19.032z"/>
		</g>
		<g>
			<path fill="#34484C" d="M22.224,23.015c7.186,0,14.374,0,21.556,0c1.452,0,1.452-1.961,0-1.961c-7.183,0-14.37,0-21.556,0
				C20.777,21.054,20.777,23.015,22.224,23.015L22.224,23.015z"/>
		</g>
		<g>
			<path fill="#34484C" d="M22.224,37.424c3.308,0,6.613,0,9.922,0c1.446,0,1.446-1.963,0-1.963c-3.31,0-6.615,0-9.922,0
				C20.777,35.461,20.777,37.424,22.224,37.424L22.224,37.424z"/>
		</g>
	</g>
	<path fill="#20AFC3" d="M33.349,33.03c0,3.079-2.555,5.575-5.701,5.575h-9.095c-3.152,0-5.703-2.496-5.703-5.575l0,0
		c0-3.078,2.55-5.572,5.703-5.572h9.095C30.795,27.458,33.349,29.952,33.349,33.03L33.349,33.03z"/>
	<g>
		<path fill="#D0D2D3" d="M63.019,59.135c0,2.095-1.939,3.786-4.332,3.786H31.056c-2.395,0-4.336-1.691-4.336-3.786v-34.13
			c0-2.092,1.941-3.789,4.336-3.789h27.632c2.394,0,4.331,1.695,4.331,3.789V59.135L63.019,59.135z"/>
		<path fill="#FFFFFF" d="M60.79,56.22c0,1.835-1.705,3.32-3.803,3.32H32.754c-2.098,0-3.802-1.485-3.802-3.32V26.285
			c0-1.835,1.705-3.319,3.802-3.319h24.233c2.098,0,3.803,1.484,3.803,3.319V56.22z"/>
		<g>
			<path fill="#34484C" d="M33.746,31.01c7.188,0,14.374,0,21.562,0c1.447,0,1.447-1.965,0-1.965c-7.188,0-14.373,0-21.562,0
				C32.299,29.045,32.299,31.01,33.746,31.01L33.746,31.01z"/>
		</g>
		<g>
			<path fill="#34484C" d="M33.746,34.993c7.188,0,14.374,0,21.562,0c1.447,0,1.447-1.961,0-1.961c-7.188,0-14.373,0-21.562,0
				C32.299,33.032,32.299,34.993,33.746,34.993L33.746,34.993z"/>
		</g>
		<g>
			<path fill="#34484C" d="M33.746,39.067c7.188,0,14.374,0,21.562,0c1.447,0,1.447-1.961,0-1.961c-7.188,0-14.373,0-21.562,0
				C32.299,37.106,32.299,39.067,33.746,39.067L33.746,39.067z"/>
		</g>
		<g>
			<path fill="#34484C" d="M33.746,43.053c7.188,0,14.374,0,21.562,0c1.447,0,1.447-1.962,0-1.962c-7.188,0-14.373,0-21.562,0
				C32.299,41.09,32.299,43.053,33.746,43.053L33.746,43.053z"/>
		</g>
		<g>
			<path fill="#34484C" d="M33.746,57.458c3.308,0,6.615,0,9.925,0c1.446,0,1.446-1.961,0-1.961c-3.31,0-6.617,0-9.925,0
				C32.299,55.497,32.299,57.458,33.746,57.458L33.746,57.458z"/>
		</g>
	</g>
</g>
</svg>
